X:96
T:Kilbaha Reel, The
T:The Laurel Groves 
B:CRE1.196 (Cill Beathach)
F:file ID: cre.1/096kilba
S:John Kelly
M:C
L:1/8
Q:180
R:reel
K:D
B2AG FDD2|(3FED AD FDFA|B2AG FDD2|E3D EFGA|
B2AG FDD2|(3FED AD FDFA|B2AG FDD2|EDCD EFGA||
d3f afdf|g2fg edBA|d3f afdf|(3gag fg e2eA|
defg a3f|(3gag (3fgf edBA|B2BA Bcde|(3fga ge fdcA||D8||

%%%

